X:1
T:Balada de Coimbra
T:Balada de Coimbra
T:José Elyseu
T:Henrique Martins de Carvalho
T:http://hemerotecadigital.cm-lisboa.pt/Periodicos/ACancaodePortugal/1916/N014/N014_item1/P3.html
C:José Elyseu
Z:Martins de Carvalho
%%score { 1 | 2 }
L:1/8
Q:1/4=100
M:3/4
K:G
V:1 treble nm="Piano" snm="Pno."
V:2 bass 
V:1
"^And.te" [FA]2 [FA]2 [GB]2 | [Ac]2 [GB]2 [FA]2 | [GB]2 [FA]3 [EG] | [^DF]2 z2 z2 | %4
w: ||||
!ff! [B^dfa]2 z2 z2 ||[K:G][M:6/8][Q:1/4=66]"^Larg.tto" z6 |:"^dolce" BBB A2 G | (FGA) (G>FE) | %8
w: ||Já bran- c'a lu- a|al- ve- j'a te- e- rra|
 eee d2 c | (Bcd) (c>BA) | AAA A2 A | (AG>F) B2 B | (FG)A B2 B |1 AG>F E2 z :|2 AG>F E2 z || %15
w: Já ne- gr'a ser- ra|tem al- va co- o- or|Pe- lo Mon- de- go|ou- vem- s'a- pe- nas|tro- vas se- re- nas|fei- tas de'a- mor|u- ma sau- dade|
[K:G][M:3/4][Q:1/4=110]"^And.no" d2 [GBd]2 [GBd]2 | [Acd]4 [FA]2 | ([FA]2!<(! [GB]2) [Ac]2!<)! | %18
w: Po- rém qu'im-|por- ta|sau- da- de'in-|
 ([ce]4 [Bd]2) | .B2 (.[^DGB]2 .[EGB]2) | [FAB]4 [^DF]2 | [^DF]2 [EG]2 [FA]2 | %22
w: fin- da?|A noi- t'é|lin- da|lin- d'o lu-|
!>(! ([Ac]4 [GB]2)!>)! | .e2 (.[^GBe]2 .[Ace]2) | [Bde]4 A2 | [Ac]2 !fermata![Acf]3 [ce] | %26
w: a- ar|Can- tai ra-|pa- zes|e ra- pa-|
 ([ce]4 [Bd]2) | [Bd]2 ([Ac]3 [GB]) | [GB]4 [FA]2 | [FA]2 !fermata![FAc]3 [GB] | G4 z2!fine! |] %31
w: ri- gas|Ter- nas can-|ti- gas|a sus- pi-|rar|
V:2
 z2 ^D,2 E,2 | F,2 E,2 ^D,2 | E,2 =D,3 C, | B,,2 z2 z2 | [B,,,B,,]2 z2 z2 || %5
[K:G][M:6/8]!p! [E,G,B,]z[E,G,B,] [E,G,B,]z[E,G,B,] |: [E,G,B,]z[E,G,B,] [B,,F,A,]z[B,,F,A,] | %7
 [^D,F,A,]z[D,F,A,] [E,G,B,]z[E,G,B,] | [E,G,B,]z[E,G,B,] [E,^G,B,]z[E,G,B,] | %9
 [E,^G,D]z[E,G,D] [E,A,C]z[E,A,C] | [E,A,C]z[E,A,C] [B,,F,A,]z[B,,F,A,] | %11
 [B,,^D,A,]z[B,,D,A,] [E,G,B,]z[E,G,B,] | [^D,A,A,]z[D,A,A,] [E,G,B,]z[E,G,B,] |1 %13
 [B,,F,A,]z[B,,F,A,] [E,G,B,]z[E,G,B,] :|2 [B,,^D,A,]z[B,,D,A,] [E,G,]2 z ||[K:G][M:3/4] z6 | %16
 D,2 [F,A,C]2 [F,A,C]2 | [D,,D,]2 [F,A,C]2 [F,A,C]2 | G,,2 [G,B,D]2 [G,B,D]2 | z6 | %20
 B,,2 [^D,F,A,]2 [D,F,A,]2 | [B,,,B,,]2 [^D,F,A,]2 [D,F,A,]2 | E,2 [G,B,]2 [G,B,]2 | z6 | %24
 E,2 [^G,B,]2 [A,C]2 | [D,,D,]2 !fermata![F,A,C]3 z | G,,2 [G,B,D]2 [G,B,D]2 | %27
 [G,,G,]2 [G,B,D]2 [G,B,D]2 | D,2 [F,A,D]2 [F,A,D]2 | [D,,D,]2 !fermata![F,A,C]3 z | %30
!ff! [G,,G,]2 [G,B,D]2 z2 |] %31

